config/includes.chroot/usr/share/icons/Tela-circle/scalable/mimetypes/text-dockerfile.svg

<svg width="64" height="64" version="1.1" viewBox="0 0 64 64" xmlns="http://www.w3.org/2000/svg">
 <defs>
  <linearGradient id="a" x1="49.571" x2="51.714" y1="52.714" y2="54.857" gradientTransform="matrix(2.3333,0,0,2.3333,-68.667,-72.001)" gradientUnits="userSpaceOnUse">
   <stop offset="0"/>
   <stop stop-opacity="0" offset="1"/>
  </linearGradient>
 </defs>
 <g transform="scale(1)">
  <rect x="8" y="4" width="48" height="56" ry="5" fill="#66d7fc" style="paint-order:stroke fill markers"/>
  <path d="m56 46-14 14h9c2.77 0 5-2.23 5-5z" fill="url(#a)" fill-rule="evenodd" opacity=".15" stroke-width="8.8191" style="paint-order:stroke fill markers"/>
 </g>
 <g transform="matrix(7.5591 0 0 7.5591 17 15.012)" opacity=".4" stroke-width=".13229">
  <path transform="scale(.26458)" d="m6.0098 3.9883v1.5586h1.5586v-1.5586zm2 0v1.5586h1.5586v-1.5586zm4.2598 1.2832c-0.52394 0.35908-0.76491 1.0092-0.60156 1.623 0.16516 0.61336 0.69874 1.0562 1.332 1.1055 0.21163 0.59859 0.77721 0.99911 1.4121 1 0.6349-8.906e-4 1.2005-0.40141 1.4121-1-0.21163-0.59859-0.77721-0.99911-1.4121-1-0.30289 9.283e-4 -0.5984 0.093532-0.84766 0.26562 0.10129-0.28586 0.11354-0.59571 0.03516-0.88867-0.16492-0.61272-0.69753-1.0554-1.3301-1.1055zm0.73047 2.7285h-12c-4.2e-7 3.3137 2.6863 5 6 5s6-1.6863 6-5zm-9.5586-2.0039v1.5586h1.5586v-1.5586zm2 0v1.5586h1.5586v-1.5586zm2 0v1.5586h1.5586v-1.5586zm2 0v1.5586h1.5586v-1.5586zm-5.9414 3.0039a0.5 0.5 0 0 1 0.5 0.5 0.5 0.5 0 0 1-0.5 0.5 0.5 0.5 0 0 1-0.5-0.5 0.5 0.5 0 0 1 0.5-0.5z" color="#000000" color-rendering="auto" image-rendering="auto" opacity="1" shape-rendering="auto" solid-color="#000000" style="isolation:auto;mix-blend-mode:normal"/>
 </g>
</svg>

<svg width="64" height="64" xmlns="http://www.w3.org/2000/svg"><defs><linearGradient id="a" x1="49.571" x2="51.714" y1="52.714" y2="54.857" gradientTransform="translate(-68.667 -72.001) scale(2.3333)" gradientUnits="userSpaceOnUse"><stop offset="0"/><stop stop-opacity="0" offset="1"/></linearGradient></defs><g><rect x="8" y="4" width="48" height="56" ry="5" fill="#66d7fc" style="paint-order:stroke fill markers"/><path d="M56 46 42 60h9c2.77 0 5-2.23 5-5z" fill="url(#a)" fill-rule="evenodd" opacity=".15" style="paint-order:stroke fill markers"/></g><g opacity=".4" stroke-width=".132"><path transform="matrix(2 0 0 2 17 15.012)" d="M6.01 3.988v1.559h1.558V3.988zm2 0v1.559h1.558V3.988zm4.26 1.284a1.5 1.5 0 0 0-.602 1.622A1.5 1.5 0 0 0 13 8a1.5 1.5 0 0 0 1.412 1 1.5 1.5 0 0 0 1.412-1 1.5 1.5 0 0 0-1.412-1 1.5 1.5 0 0 0-.848.266A1.5 1.5 0 0 0 12.27 5.27zM13 8H1c0 3.314 2.686 5 6 5s6-1.686 6-5zM3.441 5.996v1.559h1.56V5.996zm2 0v1.559h1.56V5.996zm2 0v1.559h1.56V5.996zm2 0v1.559h1.56V5.996zM3.501 9a.5.5 0 0 1 .5.5.5.5 0 0 1-.5.5.5.5 0 0 1-.5-.5.5.5 0 0 1 .5-.5z" color="#000" opacity="1" style="isolation:auto;mix-blend-mode:normal"/></g></svg>
